actions/scalable/format-font-size-more.svg

<?xml version="1.0" encoding="UTF-8" standalone="no"?>
<!-- Created with Inkscape (http://www.inkscape.org/) -->

<svg
   xmlns:dc="http://purl.org/dc/elements/1.1/"
   xmlns:cc="http://creativecommons.org/ns#"
   xmlns:rdf="http://www.w3.org/1999/02/22-rdf-syntax-ns#"
   xmlns:svg="http://www.w3.org/2000/svg"
   xmlns="http://www.w3.org/2000/svg"
   xmlns:sodipodi="http://sodipodi.sourceforge.net/DTD/sodipodi-0.dtd"
   xmlns:inkscape="http://www.inkscape.org/namespaces/inkscape"
   width="22"
   height="22"
   id="svg2"
   version="1.1"
   inkscape:version="0.48+devel r"
   viewBox="0 0 22 22"
   sodipodi:docname="format-font-size-more.svg">
  <defs
     id="defs4" />
  <sodipodi:namedview
     id="base"
     pagecolor="#ffffff"
     bordercolor="#666666"
     borderopacity="1.0"
     inkscape:pageopacity="0.0"
     inkscape:pageshadow="2"
     inkscape:zoom="16.785514"
     inkscape:cx="13.394474"
     inkscape:cy="12.017712"
     inkscape:document-units="px"
     inkscape:current-layer="layer1"
     showgrid="true"
     inkscape:showpageshadow="false"
     units="px"
     inkscape:window-width="1366"
     inkscape:window-height="668"
     inkscape:window-x="-2"
     inkscape:window-y="23"
     inkscape:window-maximized="1"
     showguides="true">
    <inkscape:grid
       type="xygrid"
       id="grid4120" />
    <sodipodi:guide
       position="2,20.000017"
       orientation="18,0"
       id="guide4126" />
    <sodipodi:guide
       position="2,2.0000174"
       orientation="0,18"
       id="guide4128" />
    <sodipodi:guide
       position="20,2.0000174"
       orientation="-18,0"
       id="guide4130" />
    <sodipodi:guide
       position="20,20.000017"
       orientation="0,-18"
       id="guide4132" />
    <sodipodi:guide
       position="3,19.000017"
       orientation="16,0"
       id="guide4134" />
    <sodipodi:guide
       position="3,3.0000174"
       orientation="0,16"
       id="guide4136" />
    <sodipodi:guide
       position="19,3.0000174"
       orientation="-16,0"
       id="guide4138" />
    <sodipodi:guide
       position="19,19.000017"
       orientation="0,-16"
       id="guide4140" />
    <sodipodi:guide
       position="19,13.000017"
       orientation="-6,0"
       id="guide4199" />
    <sodipodi:guide
       position="19,19.000017"
       orientation="0,-6.0000172"
       id="guide4201" />
  </sodipodi:namedview>
  <metadata
     id="metadata7">
    <rdf:RDF>
      <cc:Work
         rdf:about="">
        <dc:format>image/svg+xml</dc:format>
        <dc:type
           rdf:resource="http://purl.org/dc/dcmitype/StillImage" />
        <dc:title></dc:title>
      </cc:Work>
    </rdf:RDF>
  </metadata>
  <g
     inkscape:label="Capa 1"
     inkscape:groupmode="layer"
     id="layer1"
     transform="translate(0,-1030.3622)">
    <path
       style="font-style:normal;font-variant:normal;font-weight:normal;font-stretch:normal;font-size:medium;line-height:125%;font-family:Oxygen;-inkscape-font-specification:Oxygen;letter-spacing:0px;word-spacing:0px;fill:#666666;fill-opacity:1;stroke:none;stroke-width:1px;stroke-linecap:butt;stroke-linejoin:miter;stroke-opacity:1"
       d="M 3 3 L 3 4 L 3 9 L 4 9 L 4 4 L 11 4 L 11 3 L 3 3 z M 12 3 L 14 5 L 10 12 L 17 8 L 19 10 L 19 3 L 12 3 z M 18 11 L 18 18 L 13 18 L 13 19 L 18 19 L 19 19 L 19 18 L 19 11 L 18 11 z M 5.6894531 12 C 4.7603577 12 3.8918475 12.237119 3.390625 12.511719 L 3.671875 13.310547 C 4.2097724 13.048447 4.9935724 12.861328 5.7148438 12.861328 C 6.6194891 12.861328 7.0097656 13.286556 7.0097656 14.097656 L 7.0097656 14.857422 L 6.3496094 14.931641 C 4.6625678 15.181241 3 15.418234 3 17.177734 C 3 18.425634 3.9163928 19 4.9921875 19 C 5.676784 19 6.4605841 18.774681 7.0351562 18.113281 L 7.0351562 18.115234 L 7.1816406 18.851562 L 8 18.851562 L 8 13.935547 C 8 12.438147 6.9852966 12 5.6894531 12 z M 7.0097656 15.568359 L 7.0097656 17.216797 C 6.5818927 17.815797 5.7133158 18.203125 5.0898438 18.203125 L 5.0898438 18.201172 C 4.466372 18.201172 4.0019531 17.889425 4.0019531 17.140625 C 4.0019531 16.204825 4.5519655 15.90575 6.4101562 15.65625 C 6.4223812 15.65625 7.0097656 15.568359 7.0097656 15.568359 z "
       transform="translate(0,1030.3622)"
       id="path4116" />
  </g>
</svg>

<svg height="22" viewBox="0 0 22 22" width="22" xmlns="http://www.w3.org/2000/svg" xmlns:sodipodi="http://sodipodi.sourceforge.net/DTD/sodipodi-0.dtd" xmlns:inkscape="http://www.inkscape.org/namespaces/inkscape">
 <path d="m3 3v1 5h1v-5h7v-1h-8zm9 0l2 2-4 7 7-4 2 2v-7h-7zm6 8v7h-5v1h5 1v-1-7h-1zm-12.31 1c-0.9291 0-1.7977 0.237-2.2989 0.512l0.2813 0.799c0.5379-0.263 1.3217-0.45 2.0429-0.45 0.9047 0 1.295 0.426 1.295 1.237v0.759l-0.6602 0.075c-1.687 0.249-3.3496 0.486-3.3496 2.246 0 1.248 0.9164 1.822 1.9922 1.822 0.6846 0 1.4684-0.225 2.043-0.887v0.002l0.1464 0.737h0.8184v-4.916c0-1.498-1.0147-1.936-2.3105-1.936zm1.3203 3.568v1.649c-0.4279 0.599-1.2965 0.986-1.92 0.986v-0.002c-0.6234 0-1.0878-0.312-1.0878-1.06 0-0.936 0.55-1.235 2.4082-1.485 0.0122 0 0.5996-0.088 0.5996-0.088z" fill="#4d4d4d" transform="matrix(1 0 0 1 0 0)"/>
</svg>
